X:258
T:Reel 258
M:4/4
K:Gmin
L:1/8
Gc|BG (3AGF G2GA|BGAF cFAc||BGAG G2dc|BAAc defc:||2BGGA Bdef|cdfA c2|cd|fgag gfd=e|fdcB AFF2||fggf g2dc|dggf dgag:||2 (3def ge f2dc|dgge fedc|
